assets/svg/icon_profile_settings.svg

<svg width="24" height="24" viewBox="0 0 24 24" fill="none" xmlns="http://www.w3.org/2000/svg">
<path d="M12.0142 14.6251C13.4577 14.6251 14.6279 13.4549 14.6279 12.0114C14.6279 10.5678 13.4577 9.39762 12.0142 9.39762C10.5706 9.39762 9.40039 10.5678 9.40039 12.0114C9.40039 13.4549 10.5706 14.6251 12.0142 14.6251Z" stroke="#0E0E0E" stroke-width="1.2"/>
<path d="M13.5519 3.43126C13.2322 3.29883 12.8262 3.29883 12.0142 3.29883C11.2022 3.29883 10.7961 3.29883 10.4764 3.43126C10.2648 3.51883 10.0726 3.64724 9.91071 3.80914C9.74881 3.97105 9.6204 4.16327 9.53283 4.37483C9.45267 4.56912 9.42043 4.79652 9.40824 5.12672C9.40256 5.36538 9.33645 5.59871 9.21607 5.80487C9.0957 6.01103 8.925 6.18329 8.71994 6.30553C8.51155 6.42208 8.27699 6.48385 8.03821 6.48507C7.79944 6.48629 7.56426 6.42691 7.35469 6.3125C7.06195 6.15742 6.85023 6.07203 6.64026 6.04415C6.18226 5.98392 5.71908 6.10802 5.35254 6.38917C5.07897 6.60089 4.87509 6.952 4.46909 7.6551C4.06308 8.35821 3.85921 8.70932 3.81478 9.05347C3.78484 9.28039 3.7999 9.51099 3.85909 9.73209C3.91829 9.95318 4.02047 10.1605 4.15979 10.3421C4.28874 10.5093 4.46909 10.6496 4.74876 10.8256C5.16087 11.0844 5.42573 11.5252 5.42573 12.0114C5.42573 12.4975 5.16087 12.9384 4.74876 13.1963C4.46909 13.3732 4.28787 13.5134 4.15979 13.6807C4.02047 13.8623 3.91829 14.0696 3.85909 14.2907C3.7999 14.5118 3.78484 14.7424 3.81478 14.9693C3.86008 15.3126 4.06308 15.6646 4.46822 16.3677C4.87509 17.0708 5.0781 17.4219 5.35254 17.6336C5.53414 17.7729 5.74141 17.8751 5.96251 17.9343C6.18361 17.9935 6.41421 18.0085 6.64113 17.9786C6.85023 17.9507 7.06195 17.8653 7.35469 17.7103C7.56426 17.5958 7.79944 17.5365 8.03821 17.5377C8.27699 17.5389 8.51155 17.6007 8.71994 17.7172C9.14076 17.9612 9.39081 18.4099 9.40824 18.896C9.42043 19.2271 9.4518 19.4536 9.53283 19.6479C9.6204 19.8595 9.74881 20.0517 9.91071 20.2136C10.0726 20.3755 10.2648 20.5039 10.4764 20.5915C10.7961 20.7239 11.2022 20.7239 12.0142 20.7239C12.8262 20.7239 13.2322 20.7239 13.5519 20.5915C13.7635 20.5039 13.9557 20.3755 14.1176 20.2136C14.2795 20.0517 14.4079 19.8595 14.4955 19.6479C14.5757 19.4536 14.6079 19.2271 14.6201 18.896C14.6375 18.4099 14.8876 17.9603 15.3084 17.7172C15.5168 17.6007 15.7513 17.5389 15.9901 17.5377C16.2289 17.5365 16.4641 17.5958 16.6736 17.7103C16.9664 17.8653 17.1781 17.9507 17.3872 17.9786C17.6141 18.0085 17.8447 17.9935 18.0658 17.9343C18.2869 17.8751 18.4942 17.7729 18.6758 17.6336C18.9502 17.4227 19.1532 17.0708 19.5592 16.3677C19.9652 15.6646 20.1691 15.3134 20.2135 14.9693C20.2435 14.7424 20.2284 14.5118 20.1692 14.2907C20.11 14.0696 20.0078 13.8623 19.8685 13.6807C19.7396 13.5134 19.5592 13.3732 19.2796 13.1972C19.0756 13.0729 18.9065 12.899 18.7881 12.6916C18.6697 12.4842 18.6059 12.2502 18.6026 12.0114C18.6026 11.5252 18.8675 11.0844 19.2796 10.8265C19.5592 10.6496 19.7405 10.5093 19.8685 10.3421C20.0078 10.1605 20.11 9.95318 20.1692 9.73209C20.2284 9.51099 20.2435 9.28039 20.2135 9.05347C20.1682 8.71019 19.9652 8.35821 19.5601 7.6551C19.1532 6.952 18.9502 6.60089 18.6758 6.38917C18.4942 6.24985 18.2869 6.14767 18.0658 6.08847C17.8447 6.02927 17.6141 6.01421 17.3872 6.04415C17.1781 6.07203 16.9664 6.15742 16.6728 6.3125C16.4633 6.42676 16.2283 6.48605 15.9897 6.48483C15.7511 6.48361 15.5167 6.42192 15.3084 6.30553C15.1033 6.18329 14.9326 6.01103 14.8122 5.80487C14.6919 5.59871 14.6258 5.36538 14.6201 5.12672C14.6079 4.79564 14.5765 4.56912 14.4955 4.37483C14.4079 4.16327 14.2795 3.97105 14.1176 3.80914C13.9557 3.64724 13.7635 3.51883 13.5519 3.43126Z" stroke="#0E0E0E" stroke-width="1.2"/>
</svg>

<svg xmlns="http://www.w3.org/2000/svg" width="24" height="24" fill="none"><path stroke="#0E0E0E" stroke-width="1.2" d="M12.014 14.625a2.614 2.614 0 1 0 0-5.227 2.614 2.614 0 0 0 0 5.227Z"/><path stroke="#0E0E0E" stroke-width="1.2" d="M13.552 3.431c-.32-.132-.726-.132-1.538-.132s-1.218 0-1.538.132a1.74 1.74 0 0 0-.943.944c-.08.194-.113.422-.125.752a1.41 1.41 0 0 1-.688 1.179 1.41 1.41 0 0 1-1.365.006c-.293-.155-.505-.24-.715-.268a1.74 1.74 0 0 0-1.287.345c-.274.212-.478.563-.884 1.266s-.61 1.054-.654 1.398a1.74 1.74 0 0 0 .345 1.29c.129.166.31.307.589.483.412.258.677.7.677 1.185 0 .487-.265.927-.677 1.185-.28.177-.461.317-.59.485a1.74 1.74 0 0 0-.344 1.288c.045.344.248.696.653 1.399.407.703.61 1.054.885 1.266a1.74 1.74 0 0 0 1.288.345c.21-.028.421-.114.714-.269a1.41 1.41 0 0 1 1.365.007c.42.244.67.693.688 1.179.012.331.044.558.125.752a1.74 1.74 0 0 0 .943.944c.32.132.726.132 1.538.132s1.218 0 1.538-.133a1.74 1.74 0 0 0 .944-.943c.08-.194.112-.42.124-.752.018-.486.268-.936.688-1.179a1.41 1.41 0 0 1 1.366-.007c.292.155.504.24.713.269a1.74 1.74 0 0 0 1.289-.345c.274-.211.477-.563.883-1.266s.61-1.055.654-1.399a1.74 1.74 0 0 0-.344-1.288c-.13-.168-.31-.308-.59-.484a1.41 1.41 0 0 1-.676-1.186c0-.486.264-.927.677-1.184.28-.177.46-.318.588-.485a1.74 1.74 0 0 0 .346-1.289c-.046-.343-.249-.695-.654-1.398-.407-.703-.61-1.054-.884-1.266a1.74 1.74 0 0 0-1.289-.345c-.209.028-.42.113-.714.269a1.41 1.41 0 0 1-1.365-.007 1.41 1.41 0 0 1-.688-1.18c-.012-.33-.043-.557-.124-.751a1.74 1.74 0 0 0-.944-.944Z"/></svg>
